X:344
T:Coolea Jig, The
T:Cuil Aodha Jig
T:Amhran a Tae
R:jig
H:Also played in A, #143
D:D\'eanta:
D:Tommy Keane and Jacqueline McCarthy: Wind among the Reeds
Z:id:hn-jig-344
M:6/8
K:G
gfd cAd|GAG B2c|dcB cAG|FED cBA|~G3 GFG|~A3 fga|gfd cAd|1 GAG G2g:|2 GAG G2d||
d2g gfg|ade fga|gfd cAd|cAG FGA|G2g gfg|ade fga|gfd cAd|1 GAG G2d:|2 GAG G2g||

